src/assets/buildinginpublic/logo-figma.svg

<svg fill="none" height="20" viewBox="0 0 20 20" width="20" xmlns="http://www.w3.org/2000/svg"><path d="m6.66829 20c.88406 0 1.73191-.3512 2.35703-.9763s.97628-1.473.97628-2.357v-3.3334h-3.33331c-.88405 0-1.7319.3512-2.35702.9763s-.97631 1.473-.97631 2.3571c0 .884.35119 1.7319.97631 2.357s1.47297.9763 2.35702.9763z" fill="#0acf83"/><path d="m3.33496 10c0-.88404.35119-1.73189.97631-2.35701s1.47297-.97631 2.35702-.97631h3.33331v6.66662h-3.33331c-.88405 0-1.7319-.3511-2.35702-.9763-.62512-.6251-.97631-1.4729-.97631-2.357z" fill="#a259ff"/><path d="m3.33496 3.33333c0-.8836.35083-1.73105.97539-2.356099.62456-.625047 1.47174-.97654068 2.35534-.977231h3.33333v6.66667h-3.33073c-.88405 0-1.7319-.35119-2.35702-.97631-.62512-.62513-.97631-1.47297-.97631-2.35703z" fill="#f24e1e"/><path d="m10.0029 0h3.3334c.884 0 1.7319.351189 2.357.976311.6251.625119.9763 1.472969.9763 2.357019 0 .88406-.3512 1.7319-.9763 2.35703-.6251.62512-1.473.97631-2.357.97631h-3.3334z" fill="#ff7262"/><path d="m16.6696 10c0 .8841-.3512 1.7319-.9763 2.357-.6251.6252-1.473.9763-2.357.9763-.8841 0-1.7319-.3511-2.3571-.9763-.6251-.6251-.9763-1.4729-.9763-2.357 0-.88404.3512-1.73189.9763-2.35701.6252-.62512 1.473-.97631 2.3571-.97631.884 0 1.7319.35119 2.357.97631s.9763 1.47297.9763 2.35701z" fill="#1abcfe"/></svg>

<svg width="20" height="20" viewBox="0 0 20 20" fill="none" xmlns="http://www.w3.org/2000/svg">
<path d="M6.66829 20C7.55235 20 8.4002 19.6488 9.02532 19.0237C9.65044 18.3986 10.0016 17.5507 10.0016 16.6667V13.3333H6.66829C5.78424 13.3333 4.93639 13.6845 4.31127 14.3096C3.68615 14.9347 3.33496 15.7826 3.33496 16.6667C3.33496 17.5507 3.68615 18.3986 4.31127 19.0237C4.93639 19.6488 5.78424 20 6.66829 20V20Z" fill="#0ACF83"/>
<path d="M3.33496 10C3.33496 9.11596 3.68615 8.26811 4.31127 7.64299C4.93639 7.01787 5.78424 6.66668 6.66829 6.66668H10.0016V13.3333H6.66829C5.78424 13.3333 4.93639 12.9822 4.31127 12.357C3.68615 11.7319 3.33496 10.8841 3.33496 10V10Z" fill="#A259FF"/>
<path d="M3.33496 3.33333C3.33496 2.44973 3.68579 1.60228 4.31035 0.977231C4.93491 0.352184 5.78209 0.000690316 6.66569 0L9.99902 0V6.66667H6.66829C5.78424 6.66667 4.93639 6.31548 4.31127 5.69036C3.68615 5.06523 3.33496 4.21739 3.33496 3.33333V3.33333Z" fill="#F24E1E"/>
<path d="M10.0029 0H13.3363C14.2203 0 15.0682 0.351189 15.6933 0.976311C16.3184 1.60143 16.6696 2.44928 16.6696 3.33333C16.6696 4.21739 16.3184 5.06523 15.6933 5.69036C15.0682 6.31548 14.2203 6.66667 13.3363 6.66667H10.0029V0Z" fill="#FF7262"/>
<path d="M16.6696 10C16.6696 10.8841 16.3184 11.7319 15.6933 12.357C15.0682 12.9822 14.2203 13.3333 13.3363 13.3333C12.4522 13.3333 11.6044 12.9822 10.9792 12.357C10.3541 11.7319 10.0029 10.8841 10.0029 10C10.0029 9.11596 10.3541 8.26811 10.9792 7.64299C11.6044 7.01787 12.4522 6.66668 13.3363 6.66668C14.2203 6.66668 15.0682 7.01787 15.6933 7.64299C16.3184 8.26811 16.6696 9.11596 16.6696 10V10Z" fill="#1ABCFE"/>
</svg>
